public/flags/TJ.svg

<svg fill="none" height="53" viewBox="0 0 61 53" width="61" xmlns="http://www.w3.org/2000/svg" xmlns:xlink="http://www.w3.org/1999/xlink"><mask id="a" height="43" maskUnits="userSpaceOnUse" width="59" x="1" y="3"><rect fill="#fff" height="41.4393" rx="3.7125" stroke="#fff" stroke-width="1.06071" width="57.9393" x="1.53036" y="3.53036"/></mask><rect fill="#fff" height="41.4393" rx="3.7125" stroke="#f5f5f5" stroke-width="1.06071" width="57.9393" x="1.53036" y="3.53036"/><g clip-rule="evenodd" fill-rule="evenodd" mask="url(#a)"><path d="m1 17.1667h59v-14.1667h-59z" fill="#d9101c"/><path d="m1 45.5h59v-14.1667h-59z" fill="#0f7811"/><path d="m29.0953 21.4167c0 .7824-.629 1.4167-1.4048 1.4167s-1.4048-.6343-1.4048-1.4167.629-1.4166 1.4048-1.4166 1.4048.6342 1.4048 1.4166zm2.8096 2.8333c0 .2563-.0675.8006-.1855 1.4167h1.5806c.7811 0 1.4143.6356 1.4143 1.4167s-.6332 1.4166-1.4143 1.4166h-2.7971-.0028-.0027-2.7974c-.7811 0-1.4143-.6355-1.4143-1.4166s.6332-1.4167 1.4143-1.4167h1.5808c-.118-.6161-.1854-1.1604-.1854-1.4167 0-.7824.6289-1.4166 1.4047-1.4166.7759 0 1.4048.6342 1.4048 1.4166zm2.8095-2.8333c0 .7824-.6289 1.4167-1.4048 1.4167-.7758 0-1.4047-.6343-1.4047-1.4167s.6289-1.4166 1.4047-1.4166c.7759 0 1.4048.6342 1.4048 1.4166zm4.2142 4.25c.7758 0 1.4048-.6342 1.4048-1.4167 0-.7824-.629-1.4166-1.4048-1.4166s-1.4048.6342-1.4048 1.4166c0 .7825.629 1.4167 1.4048 1.4167zm-15.4523-1.4167c0 .7825-.629 1.4167-1.4048 1.4167s-1.4048-.6342-1.4048-1.4167c0-.7824.629-1.4166 1.4048-1.4166s1.4048.6342 1.4048 1.4166z" fill="#fad14e"/></g></svg>

<svg width="61" height="53" viewBox="0 0 61 53" fill="none" xmlns="http://www.w3.org/2000/svg">
<rect x="1.53036" y="3.53036" width="57.9393" height="41.4393" rx="3.7125" fill="white" stroke="#F5F5F5" stroke-width="1.06071"/>
<mask id="mask0" mask-type="alpha" maskUnits="userSpaceOnUse" x="1" y="3" width="59" height="43">
<rect x="1.53036" y="3.53036" width="57.9393" height="41.4393" rx="3.7125" fill="white" stroke="white" stroke-width="1.06071"/>
</mask>
<g mask="url(#mask0)">
<path fill-rule="evenodd" clip-rule="evenodd" d="M1 17.1667H60V3H1V17.1667Z" fill="#D9101C"/>
<path fill-rule="evenodd" clip-rule="evenodd" d="M1 45.5H60V31.3333H1V45.5Z" fill="#0F7811"/>
<path fill-rule="evenodd" clip-rule="evenodd" d="M29.0953 21.4167C29.0953 22.1991 28.4663 22.8334 27.6905 22.8334C26.9147 22.8334 26.2857 22.1991 26.2857 21.4167C26.2857 20.6343 26.9147 20.0001 27.6905 20.0001C28.4663 20.0001 29.0953 20.6343 29.0953 21.4167ZM31.9049 24.25C31.9049 24.5063 31.8374 25.0506 31.7194 25.6667H33.3C34.0811 25.6667 34.7143 26.3023 34.7143 27.0834C34.7143 27.8645 34.0811 28.5 33.3 28.5H30.5029L30.5001 28.5L30.4974 28.5H27.7C26.9189 28.5 26.2857 27.8645 26.2857 27.0834C26.2857 26.3023 26.9189 25.6667 27.7 25.6667H29.2808C29.1628 25.0506 29.0954 24.5063 29.0954 24.25C29.0954 23.4676 29.7243 22.8334 30.5001 22.8334C31.276 22.8334 31.9049 23.4676 31.9049 24.25ZM34.7144 21.4167C34.7144 22.1991 34.0855 22.8334 33.3096 22.8334C32.5338 22.8334 31.9049 22.1991 31.9049 21.4167C31.9049 20.6343 32.5338 20.0001 33.3096 20.0001C34.0855 20.0001 34.7144 20.6343 34.7144 21.4167ZM38.9286 25.6667C39.7044 25.6667 40.3334 25.0325 40.3334 24.25C40.3334 23.4676 39.7044 22.8334 38.9286 22.8334C38.1528 22.8334 37.5238 23.4676 37.5238 24.25C37.5238 25.0325 38.1528 25.6667 38.9286 25.6667ZM23.4763 24.25C23.4763 25.0325 22.8473 25.6667 22.0715 25.6667C21.2957 25.6667 20.6667 25.0325 20.6667 24.25C20.6667 23.4676 21.2957 22.8334 22.0715 22.8334C22.8473 22.8334 23.4763 23.4676 23.4763 24.25Z" fill="#FAD14E"/>
</g>
</svg>
